X: 032242
T: Chicken in the Bucket 
C: B.Black 12/07
N: 255
M: 6/8
Q: 1/4=160
L: 1/8
R: jig
K: G
A | "G" GAB "Am" AGE | "G"GAB "C" cBc | "G"dgf "Em" edB | "D" ABG FED |
"G" GAB "Am" AGE | "G"GAB "C" cde  | "D" def "G"gdB | "D7" cAF "G" G2 :|
e | "Em" egb "Am" a^ga | "Em" bge "D" d^cd | "C" efg "Am" a^ga | "D" fd^c dc=c |
"G" BGB "Am" cAc | "D" def "C" gfe | "G" dBG "Am" EAc | "D" AFA "G" G2 :|
